!!!!SEGMENT: pl-wn--sd-xvi-qu-273--060_gomolka-mikolaj--rozproszyles-nas-boze-boze-niezmierzony.krn
!!!cenid: 15xx:265
!!!COM: Gomółka, Mikołaj
!!!COM-rismid: pe30013343
!!!CDT: ~1535->1591/04/30
!!!CNT: Polish
!!!GTL: Melodiae na psalterz polski
!!!OTL: LX. Rozproszyłeś nas, Boże, Boże niezmierzony,
!!!ONB: PSALM LX. Deus repulisti nos et destruxisti nos: iratus es, et misertus es nobis.
!!!PDT: 1580
!!!AGN: Sacred
!!!SMS-siglum: PL-Wn
!!!SMS-shelfmark: SD XVI.Qu.273
!!!SMS-shelfwork: 060 G
!!!NIFC-rismid:
!!!ONB-nifc: Melodiae na psalterz polski
**kern	**text	**kern	**text	**kern	**text	**kern	**text
*part4	*part4	*part3	*part3	*part2	*part2	*part1	*part1
*staff4	*staff4	*staff3	*staff3	*staff2	*staff2	*staff1	*staff1
*clefF4	*	*clefC4	*	*clefC3	*	*clefC1	*
*k[]	*	*k[]	*	*k[]	*	*k[]	*
*d:	*	*d:	*	*d:	*	*d:	*
*M2/1	*	*M2/1	*	*M2/1	*	*M2/1	*
*met(C|)	*	*met(C|)	*	*met(C|)	*	*met(C|)	*
*I"BASSUS.	*	*I"TENOR.	*	*I"ALTUS.	*	*I"CANTUS.	*
=1-	=1	=1-	=1	=1-	=1	=1-	=1
1D\	ROs-	1d\	ROz-	1A/	ROz-	1a\	ROs-
2D/	-pró-	2d\	-pró-	2A/	-pró-	2a\	-pró-
2GG/	-szy-	2B\	-szy-	2d\	-szy-	2g/	-szy-
=2-	=2	=2-	=2	=2-	=2	=2-	=2
2D/	-łeś	2A/	-łeś	2d\	-łeś	2.f#/	-łeś
2D/	nas,	2A/	nas,	2d\	nas,	.	.
.	.	.	.	.	.	4g/	nas,
2D/	bo-	2.f\	bo-	2d\	Bo-	2a\	bo-
2E\	że,	.	.	2B/	.	2g/	-że,
.	.	4e\	.	.	.	.	.
=3-	=3	=3-	=3	=3-	=3	=3-	=3
2F\	bo-	2d\	-że,	2A/	-że,	2a\	bo-
2F\	-że	2A/	bo-	2f\	bo-	2cc\	-że
2G\	nie-	2B\	-że	4d\	-że	2b\	nie-
.	.	.	.	4e\	.	.	.
2A\	-zmie-	2c#\	nie-	4f\	nie-	2a\	-zmie-
.	.	.	.	4e\	.	.	.
=4-	=4	=4-	=4	=4-	=4	=4-	=4
1B\	-rzo-	2d\	-zmie-	4d\	-zmie-	2a\	-rzo-
.	.	.	.	4c\	.	.	.
.	.	2d\	-rzo-	2d\	-rzo-	2g#/	.
2A\	-ny,	2c#X\	-(ny,)	2e\	-ny,	2a\	-ny,
2AA/	Ská-	2A/	Ská-	2c/	Ská-	2e/	Ská-
=5-	=5	=5-	=5	=5-	=5	=5-	=5
2C/	-źi-	2G/	-źi-	2c/	-źi-	2e/	źi-
2C/	-łeś	2G/	-łeś	2c/	-łeś	2c/	-łeś
2D/	nas	4F/	nas	2A/	nas	2fny/	nas
.	.	4G/	.	.	.	.	.
2C#/	ná-	1A\	ná-	2E/	ná-	2e/	ná-
=6-	=6	=6-	=6	=6-	=6	=6-	=6
2D/	-szé-	.	.	2F/	-sze-	1d/	-szé-
2BB/	.	2G#/	-szé-	2D/	.	.	.
!!LO:PB:g=original
2AA/	mi	2A/	-mi	2E/	-mi	2c/	mi
2Cny/	grzé-	4A/	grzé-	2c/	grzé-	2e/	grzé-
.	.	4Gny/	.	.	.	.	.
=7-	=7	=7-	=7	=7-	=7	=7-	=7
2D/	-chy	2F/	-chy	2F/	-chy	4e/	-chy
.	.	.	.	.	.	4d/	.
2BB/	o-	4E/	o-	2G/	o-	2d/	o-
.	.	4D/	.	.	.	.	.
2AA/	-brá-	2E/	-brá-	2A/	-brá-	2d/	-brá-
2AA/	-żo-	2E/	-żo-	2A/	-żo-	2c/	-żo-
=8-	=8	=8-	=8	=8-	=8	=8-	=8
2D/	-ny,	2D/	-ny,	2A/	-ny,	2d/	-ny,
2G\	Smi-	2d\	Smi-	2B/	Smi-	2b\	Smi-
1C/	-łuy	2.e\	-łuy	2.g\	-łuy	2.cc\	-łuy
.	.	4d\	.	4f\	.	4b\	.
=9-	=9	=9-	=9	=9-	=9	=9-	=9
2F\	sye	2cny\	sye	2e\	sye	2a\	sye
2F\	kie-	4B\	kie-	2d\	kie-	2a\	kie-
.	.	4A\	.	.	.	.	.
2E\	-dy,	2B\	-dy,	2e\	-dy,	2g#X/	-dy,
2AA/	á	2A/	á	2c#/	á	2e/	á
=10-	=10	=10-	=10	=10-	=10	=10-	=10
2D/	gniéw	2A/	gniéw	2d\	gniéw	2f#X/	gniéw
2C/	po-	2c\	po-	2e\	po-	2gny/	po-
2F\	-rzu-	2c\	-rzu-	2e\	-rzu-	2a\	-rzu
2F\	-ći-	4B\	-ći-	2d\	-ći-	2a\	-ći-
.	.	4A\	.	.	.	.	.
=11-	=11	=11-	=11	=11-	=11	=11-	=11
2E\	-wszy	2B\	.	2e\	-wszy,	2g#/	wszy,
2AA/	Ná-	2A/	-(wszy)	2e\	Ná-	2a\	Ná-
1AA/	-wróć	2.A\	Ná-	1e\	-wróć	1a\	-wróć
.	.	4B\	-wróć	.	.	.	.
=12-	=12	=12-	=12	=12-	=12	=12-	=12
!!LO:PB:g=original
4AA/	sye	2c\	sye	2.e\	sye	2a\	sye
4BB/	.	.	.	.	.	.	.
4C/	do	1G/	.	.	.	2gny/	do
4D/	.	.	.	4d\	.	.	.
2.E\	nas	.	.	2cny\	do	2.g/	nas
.	.	1E/	do	2.B/	nas	.	.
4D/	.	.	.	.	.	4fny/	.
=13-	=13	=13-	=13	=13-	=13	=13-	=13
2C#/	te-	.	.	.	.	2e/	te-
.	.	.	.	4A/	.	.	.
4D/	.	2D/	.	1A/	te-	2f/	.
!LO:SIC:s=4C#:v	!	!	!	!	!	!	!
4Cny/	.	.	.	.	.	.	.
4BB/	.	1D/	nas	.	.	1d/	-skli-
4AA/	.	.	.	.	.	.	.
2BB/	-skli-	.	.	2G/	-skli-	.	.
=14-	=14	=14-	=14	=14-	=14	=14-	=14
2AA/	-wych	2E/	te-	2A/	-wych	2c#X/	-wych
2GG/	ży-	4G/	-skli-	2B/	ży-	1d/	ży-
.	.	4F/	-wych	.	.	.	.
1AA/	-czli-	4E/	ży-	1A/	-czli-	.	.
.	.	4D/	.	.	.	.	.
!	!	!	!	!	!	!LO:SIC:s=2c#:v	!
.	.	2E/	-czli-	.	.	2cny/	-czli-
=15-	=15	=15-	=15	=15-	=15	=15-	=15
*	*	*000/left	*	*000/left	*	*	*
000D\	-wszy.	000D/	-wszy.	000A/	wszy,	000d/	-wszy.
==	==	==	==	==	==	==	==
*-	*-	*-	*-	*-	*-	*-	*-
!!!RDF**kern: l = terminal long
!!!system-decoration: s1,s2,s3,s4
!!!ENC: Marta Lawrence
!!!END: 2020-02-12
!!!URL-scan: https://polona.pl/item/melodiae-na-psalterz-polski,Nzk3MTM4ODQ/151 Scan on Polona
!!!IIIF: https://polona.pl/iiif/item/Nzk3MTM4ODQ/manifest.json
